_includes/icons/color-face-id.svg

<svg fill="#666" height="50" viewBox="0 0 48 48" width="50" xmlns="http://www.w3.org/2000/svg"><path d="m6 11c0-2.8 2.2-5 5-5h26c2.8 0 5 2.2 5 5v26c0 2.8-2.2 5-5 5h-26c-2.8 0-5-2.2-5-5z" fill="#b3e5fc"/><g fill="#03a9f4"><path d="m42 16h-2v-4.8c0-1.7-1.5-3.2-3.2-3.2h-4.8v-2h4.8c2.9 0 5.3 2.4 5.3 5.3v4.7z"/><path d="m8 16h-2v-4.8c0-2.8 2.4-5.2 5.3-5.2h4.7v2h-4.8c-1.7 0-3.2 1.5-3.2 3.3z"/><path d="m16 42h-4.8c-2.8 0-5.2-2.4-5.2-5.2v-5.8h2v5.8c0 1.8 1.5 3.3 3.3 3.3h4.7z"/><path d="m36.8 42h-4.8v-2h4.8c1.8 0 3.3-1.5 3.3-3.3v-5.7h2v5.8c-.1 2.8-2.5 5.2-5.3 5.2z"/><path d="m23 28h-2v-2h2c.6 0 1-.4 1-1v-8h2v8c0 1.7-1.3 3-3 3z"/><path d="m15 17h2v5h-2z"/><path d="m31 17h2v5h-2z"/><path d="m24 34c-3.6 0-5.3-1-5.5-1.2l-.8-.5 1.1-1.7.8.5c.1 0 1.5.9 4.5.9s4.5-.8 4.5-.9l.9-.5 1 1.7-.8.5c-.4.2-2.1 1.2-5.7 1.2z"/></g></svg>

<svg xmlns="http://www.w3.org/2000/svg" viewBox="0 0 48 48" width="50" height="50" fill="#666"><path d="M6,11c0-2.8,2.2-5,5-5h26c2.8,0,5,2.2,5,5v26c0,2.8-2.2,5-5,5H11c-2.8,0-5-2.2-5-5V11z" fill="#b3e5fc"/><g fill="#03a9f4"><path d="M42,16h-2v-4.8C40,9.5,38.5,8,36.8,8H32V6h4.8c2.9,0,5.3,2.4,5.3,5.3V16z"/><path d="M8,16H6v-4.8C6,8.4,8.4,6,11.3,6H16v2h-4.8C9.5,8,8,9.5,8,11.3V16z"/><path d="M16,42h-4.8C8.4,42,6,39.6,6,36.8V31h2v5.8c0,1.8,1.5,3.3,3.3,3.3H16V42z"/><path d="M36.8,42H32v-2h4.8c1.8,0,3.3-1.5,3.3-3.3V31h2v5.8C42,39.6,39.6,42,36.8,42z"/></g><path d="M23,28h-2v-2h2c0.6,0,1-0.4,1-1v-8h2v8C26,26.7,24.7,28,23,28z" fill="#03a9f4"/><path fill="#03a9f4" d="M15 17H17V22H15z"/><path fill="#03a9f4" d="M31 17H33V22H31z"/><path d="M24,34c-3.6,0-5.3-1-5.5-1.2l-0.8-0.5l1.1-1.7l0.8,0.5c0.1,0,1.5,0.9,4.5,0.9c3,0,4.5-0.8,4.5-0.9 l0.9-0.5l1,1.7l-0.8,0.5C29.3,33,27.6,34,24,34z" fill="#03a9f4"/></svg>
